svg/signal_hspa.svg

<?xml version="1.0" encoding="UTF-8"?><!DOCTYPE svg PUBLIC "-//W3C//DTD SVG 1.1//EN" "http://www.w3.org/Graphics/SVG/1.1/DTD/svg11.dtd"><svg xmlns="http://www.w3.org/2000/svg" xmlns:xlink="http://www.w3.org/1999/xlink" version="1.1" id="mdi-signal-hspa" width="24" height="24" viewBox="0 0 24 24"><path d="M10.5,10.5H13.5V4.5H16.5V19.5H13.5V13.5H10.5V19.5H7.5V4.5H10.5V10.5Z" /></svg>

<svg xmlns="http://www.w3.org/2000/svg" viewBox="0 0 24 24"><path d="M10.5 10.5h3v-6h3v15h-3v-6h-3v6h-3v-15h3z"/></svg>
